X: 1
T: Babes In The Woods
M: 3/4
L: 1/8
R: waltz
K: Gmaj
B/c/|ded Bdd|gBe d2d|c2 B/c/ aBc|edc B2 B/c/|
ded B2 d|gBe d2 f/g/|a2 g f2e|def g3|
